svgs/sharp-duotone-solid/wand-sparkles.svg

<svg xmlns="http://www.w3.org/2000/svg" viewBox="0 0 512 512"><!--! Font Awesome Pro 7.1.0 by @fontawesome - https://fontawesome.com License - https://fontawesome.com/license (Commercial License) Copyright 2025 Fonticons, Inc. --><path opacity=".4" fill="currentColor" d="M0 144l56 24 24 56 24-56 56-24-56-24-24-56-24 56-56 24zM160 48l32 16 16 32 16-32 32-16-32-16-16-32-16 32-32 16zM352 368l56 24 24 56 24-56 56-24-56-24-24-56-24 56-56 24z"/><path fill="currentColor" d="M80 512l-80-80 128-115.2 0-60.8 67.6 0 284.4-256 32 32-96 106.7 0 53.3-48 0-288 320z"/></svg>

<svg xmlns="http://www.w3.org/2000/svg" viewBox="0 0 512 512"><!--! Font Awesome Pro 6.6.0 by @fontawesome - https://fontawesome.com License - https://fontawesome.com/license (Commercial License) Copyright 2024 Fonticons, Inc. --><defs><style>.fa-secondary{opacity:.4}</style></defs><path class="fa-secondary" d="M0 144l56 24 24 56 24-56 56-24-56-24L80 64 56 120 0 144zM160 48l32 16 16 32 16-32 32-16L224 32 208 0 192 32 160 48zM352 368l56 24 24 56 24-56 56-24-56-24-24-56-24 56-56 24z"/><path class="fa-primary" d="M80 512L0 432 128 316.8l0-60.8 67.6 0L480 0l32 32L416 138.7l0 53.3-48 0L80 512z"/></svg>
